assets/img/location1.svg

<svg width="16" height="19" viewBox="0 0 16 19" fill="none" xmlns="http://www.w3.org/2000/svg">
<path fill-rule="evenodd" clip-rule="evenodd" d="M8.22965 6.79199C7.34507 6.79199 6.62549 7.51158 6.62549 8.39708C6.62549 9.28166 7.34507 10.0003 8.22965 10.0003C9.11424 10.0003 9.83382 9.28166 9.83382 8.39708C9.83382 7.51158 9.11424 6.79199 8.22965 6.79199ZM8.22965 11.3753C6.58699 11.3753 5.25049 10.0397 5.25049 8.39708C5.25049 6.75349 6.58699 5.41699 8.22965 5.41699C9.87232 5.41699 11.2088 6.75349 11.2088 8.39708C11.2088 10.0397 9.87232 11.3753 8.22965 11.3753Z" fill="#E74F2C"/>
<mask id="mask0_1367_8002" style="mask-type:luminance" maskUnits="userSpaceOnUse" x="0" y="0" width="16" height="19">
<path fill-rule="evenodd" clip-rule="evenodd" d="M0.666504 0.833496H15.791V18.7085H0.666504V0.833496Z" fill="white"/>
</mask>
<g mask="url(#mask0_1367_8002)">
<path fill-rule="evenodd" clip-rule="evenodd" d="M8.22852 2.2085C4.81668 2.2085 2.04102 5.01075 2.04102 8.45375C2.04102 12.8345 7.19635 17.1025 8.22852 17.3298C9.26068 17.1016 14.416 12.8336 14.416 8.45375C14.416 5.01075 11.6403 2.2085 8.22852 2.2085ZM8.22852 18.7085C6.58402 18.7085 0.666016 13.6192 0.666016 8.45375C0.666016 4.25175 4.0586 0.833496 8.22852 0.833496C12.3984 0.833496 15.791 4.25175 15.791 8.45375C15.791 13.6192 9.87302 18.7085 8.22852 18.7085Z" fill="#E74F2C"/>
</g>
</svg>

<svg xmlns="http://www.w3.org/2000/svg" width="16" height="19" fill="none"><path fill="#E74F2C" fill-rule="evenodd" d="M8.23 6.792a1.605 1.605 0 1 0 1.604 1.605c0-.885-.72-1.605-1.604-1.605m0 4.583a2.98 2.98 0 0 1-2.98-2.978 2.983 2.983 0 0 1 2.98-2.98 2.983 2.983 0 0 1 2.979 2.98 2.98 2.98 0 0 1-2.98 2.978" clip-rule="evenodd"/><mask id="a" width="16" height="19" x="0" y="0" maskUnits="userSpaceOnUse" style="mask-type:luminance"><path fill="#fff" fill-rule="evenodd" d="M.667.833H15.79V18.71H.667z" clip-rule="evenodd"/></mask><g mask="url(#a)"><path fill="#E74F2C" fill-rule="evenodd" d="M8.229 2.209c-3.412 0-6.188 2.802-6.188 6.245 0 4.38 5.155 8.648 6.188 8.876 1.032-.228 6.187-4.496 6.187-8.876 0-3.443-2.776-6.246-6.187-6.246m0 16.5c-1.645 0-7.563-5.09-7.563-10.255 0-4.202 3.393-7.62 7.563-7.62s7.562 3.418 7.562 7.62c0 5.165-5.918 10.255-7.562 10.255" clip-rule="evenodd"/></g></svg>
